X:2
T:O'Connor's Polka
S:Martin O'Connor of The Boys of the Lough
M:C|
L:1/4
K:G
B \
| "G"D>E GB | D>E GB | "Am"AE ED/E/ | "C"GE "D"EB \
| "G"D>E GB | D>E GB |  "C"AE "D"FG | "D"AG "G"G :|
|: B/c/ \
| "G"dB BA/B/ | dB B>A | "Em"GE ED/E/ | "C"GE "D"EB/c/ \
| "G"dB BA/B/ | dB B>A |  "C"GE "D"FG | "D"AG "G"G :|
